X:1
T:The Great Courthouse
M:3/4
L:1/8
K:A
 z2 z2 C2| E4E-A| F4 G3/2 F/2| E4 E2| C4 D2| E4E-A| F4F-A| E6-| E4 A,2|\
 B,- C3C-B,|
